;FLAVOR:Marlin
;TIME:6667
;Filament used: 4.69524m
;Layer height: 0.2
;MINX:84.95
;MINY:68.45
;MINZ:0.2
;MAXX:155.05
;MAXY:133.092
;MAXZ:107
;TARGET_MACHINE.NAME:Eryone ER20
;Generated with Cura_SteamEngine 5.11.0
M140 S65
M105
M190 S65
M104 S215
M105
M109 S215
G21 ;Metric values
G90 ;Absolute positioning
M82 ;Set extruder to absolute mode
M107 ;Start with the fan off
G28 ;Homing the hotend
G29 ;Auto bed leveling detecting
G92 E0 ;Reset the extruded length
G1 F200 E3 ;Extrude 3mm of filament
G92 E0 ;Reset the extruded length again
G1 Y-3 F1200 ;Move y axis to prime
G1 X150 F6000 ;Move x axis to prime
G1 Z0.2 F720 ;Move z axis to prime
G1 X80.0 E8.0 F900 ;Prime line
G1 X20.0 E10.0 F700 ;Prime line
G92 E0 ;Reset the extruded length
G5 ;Enable resume from power failure
M117 Printing...

M82 ;absolute extrusion mode
G92 E0
G92 E0
G1 F5100 E-4
;LAYER_COUNT:535
;LAYER:0
M106 S255
M204 S1800
G0 F2000 X86.658 Y70.309 Z0.2
M204 S1000
;TYPE:SKIRT
G1 F2040 E0
G1 F2400 X87.17 Y69.836 E0.02434
G1 X87.818 Y69.371 E0.0522
G1 X88.383 Y69.06 E0.07472
G1 X89.129 Y68.761 E0.10279
G1 X89.922 Y68.56 E0.13136
G1 X90.919 Y68.452 E0.16638
G1 X148.305 Y68.45 E2.17048
G1 X149.132 Y68.463 E2.19936
G1 X149.875 Y68.526 E2.2254
G1 X150.507 Y68.654 E2.24792
G1 X151.317 Y68.926 E2.27776
G1 X151.899 Y69.205 E2.3003
G1 X152.53 Y69.605 E2.3264
G1 X153.186 Y70.152 E2.35622
G1 X153.627 Y70.624 E2.37878
G1 X154.127 Y71.315 E2.40857
G1 X154.438 Y71.88 E2.43109
G1 X154.738 Y72.624 E2.45911
G1 X154.939 Y73.418 E2.48771
G1 X155.048 Y74.417 E2.52281
G1 X155.05 Y121.348 E4.16179
G1 X155.038 Y122.123 E4.18885
G1 X154.986 Y122.791 E4.21225
G1 X154.867 Y123.425 E4.23478
G1 X154.606 Y124.24 E4.26467
G1 X154.335 Y124.825 E4.28718
G1 X153.944 Y125.462 E4.31329
G1 X153.405 Y126.127 E4.34318
G1 X152.861 Y126.641 E4.36932
G1 X152.344 Y127.027 E4.39185
G1 X151.565 Y127.473 E4.4232
G1 X150.108 Y128.088 E4.47843
G1 X147.956 Y129.014 E4.56025
G1 X145.528 Y130.143 E4.65376
G1 X143.18 Y131.314 E4.74539
G1 X142.585 Y131.634 E4.76898
G1 X141.131 Y132.389 E4.8262
G1 X140.422 Y132.68 E4.85296
G1 X139.47 Y132.92 E4.88725
G1 X138.537 Y133.013 E4.92
G1 X137.096 Y133.014 E4.97032
G1 X134.83 Y132.975 E5.04947
G1 X132.185 Y132.971 E5.14184
G1 X130.15 Y133.015 E5.21292
G1 X126.989 Y133.056 E5.32333
G1 X125.807 Y133.09 E5.36462
G1 X123.604 Y133.091 E5.44156
G1 X121.338 Y133.052 E5.52071
G1 X118.693 Y133.048 E5.61308
G1 X116.648 Y133.092 E5.68451
G1 X114.606 Y133.091 E5.75583
G1 X113.867 Y133.079 E5.78164
G1 X112.742 Y132.951 E5.82118
G1 X112.1 Y132.779 E5.84439
G1 X111.312 Y132.515 E5.87341
G1 X108.684 Y131.67 E5.96982
G1 X106.136 Y130.927 E6.06251
G1 X103.59 Y130.265 E6.15438
G1 X100.994 Y129.668 E6.24741
G1 X98.386 Y129.145 E6.3403
G1 X95.781 Y128.698 E6.4326
G1 X93.131 Y128.32 E6.52609
G1 X89.964 Y127.948 E6.63745
G1 X89.286 Y127.789 E6.66177
G1 X88.534 Y127.511 E6.68977
G1 X87.96 Y127.216 E6.71231
G1 X87.339 Y126.799 E6.73843
G1 X86.736 Y126.272 E6.7664
G1 X86.272 Y125.752 E6.79074
G1 X85.843 Y125.137 E6.81692
G1 X85.472 Y124.426 E6.84493
G1 X85.198 Y123.67 E6.87301
G1 X85.033 Y122.922 E6.89976
G1 X84.95 Y121.878 E6.93634
G1 X84.951 Y75.083 E8.57057
G1 X84.963 Y74.365 E8.59564
G1 X85.026 Y73.619 E8.62179
G1 X85.168 Y72.939 E8.64605
G1 X85.388 Y72.277 E8.67041
G1 X85.759 Y71.506 E8.70029
G1 X86.14 Y70.922 E8.72465
G1 X86.658 Y70.309 E8.75267
M204 S1800
G0 F2000 X86.943 Y70.618
M204 S1000
G1 F2400 X87.455 Y70.145 E8.77702
G1 X88.021 Y69.739 E8.80134
G1 X88.586 Y69.428 E8.82387
G1 X89.234 Y69.168 E8.84825
G1 X89.967 Y68.978 E8.87469
G1 X90.964 Y68.87 E8.90972
G1 X148.299 Y68.87 E10.91203
G1 X149.098 Y68.882 E10.93994
G1 X149.792 Y68.938 E10.96426
G1 X150.424 Y69.066 E10.98678
G1 X151.135 Y69.305 E11.01297
G1 X151.717 Y69.584 E11.03551
G1 X152.304 Y69.959 E11.05984
G1 X152.879 Y70.439 E11.086
G1 X153.32 Y70.911 E11.10855
G1 X153.759 Y71.518 E11.13472
G1 X154.07 Y72.083 E11.15724
G1 X154.331 Y72.729 E11.18157
G1 X154.521 Y73.464 E11.20808
G1 X154.63 Y74.463 E11.24318
G1 X154.63 Y121.342 E12.88034
G1 X154.619 Y122.092 E12.90654
G1 X154.573 Y122.714 E12.92832
G1 X154.454 Y123.348 E12.95085
G1 X154.225 Y124.063 E12.97706
G1 X153.954 Y124.648 E12.99958
G1 X153.587 Y125.241 E13.02394
G1 X153.116 Y125.823 E13.05008
G1 X152.61 Y126.304 E13.07446
G1 X152.093 Y126.69 E13.097
G1 X151.402 Y127.086 E13.12481
G1 X149.942 Y127.702 E13.18015
G1 X147.79 Y128.628 E13.26197
G1 X145.351 Y129.762 E13.3559
G1 X142.981 Y130.944 E13.44839
G1 X142.391 Y131.261 E13.47178
G1 X140.97 Y132.001 E13.52773
G1 X140.317 Y132.273 E13.55244
G1 X139.428 Y132.502 E13.5845
G1 X138.495 Y132.595 E13.61724
G1 X137.103 Y132.594 E13.66586
G1 X134.837 Y132.555 E13.745
G1 X132.177 Y132.551 E13.8379
G1 X130.145 Y132.595 E13.90888
G1 X126.977 Y132.636 E14.01953
G1 X125.807 Y132.67 E14.0604
G1 X123.611 Y132.671 E14.13709
G1 X121.345 Y132.632 E14.21624
G1 X118.685 Y132.628 E14.30914
G1 X116.648 Y132.672 E14.38029
G1 X114.613 Y132.671 E14.45136
G1 X113.874 Y132.659 E14.47717
G1 X112.851 Y132.545 E14.51312
G1 X112.209 Y132.373 E14.53633
G1 X111.441 Y132.115 E14.56463
G1 X108.813 Y131.27 E14.66103
G1 X106.249 Y130.523 E14.7543
G1 X103.684 Y129.856 E14.84685
G1 X101.077 Y129.256 E14.94028
G1 X98.469 Y128.733 E15.03317
G1 X95.84 Y128.282 E15.12633
G1 X93.19 Y127.904 E15.21981
G1 X90.058 Y127.539 E15.32993
G1 X89.43 Y127.394 E15.35244
G1 X88.726 Y127.137 E15.37861
G1 X88.152 Y126.842 E15.40115
G1 X87.574 Y126.451 E15.42552
G1 X87.049 Y125.992 E15.44987
G1 X86.585 Y125.472 E15.47421
G1 X86.188 Y124.898 E15.49858
G1 X85.866 Y124.281 E15.52289
G1 X85.608 Y123.577 E15.54907
G1 X85.452 Y122.888 E15.57375
G1 X85.37 Y121.878 E15.60913
G1 X85.371 Y75.09 E17.24312
G1 X85.382 Y74.399 E17.26725
G1 X85.438 Y73.703 E17.29164
G1 X85.567 Y73.071 E17.31416
G1 X85.787 Y72.409 E17.33853
G1 X86.112 Y71.734 E17.36469
G1 X86.462 Y71.192 E17.38722
G1 X86.943 Y70.618 E17.41338
M204 S1800
G0 F2000 X87.229 Y70.925
M204 S1000
G1 F2400 X87.701 Y70.485 E17.43591
G1 X88.224 Y70.107 E17.45845
G1 X88.789 Y69.796 E17.48097
G1 X89.389 Y69.558 E17.50351
G1 X90.013 Y69.395 E17.52604
G1 X90.964 Y69.29 E17.55945
G1 X148.293 Y69.29 E19.56156
G1 X149.066 Y69.301 E19.58856
G1 X149.709 Y69.35 E19.61108
G1 X150.341 Y69.478 E19.6336
G1 X150.953 Y69.684 E19.65615
G1 X151.535 Y69.963 E19.67869
G1 X152.077 Y70.312 E19.7012
G1 X152.572 Y70.726 E19.72374
G1 X153.013 Y71.198 E19.7463
G1 X153.391 Y71.721 E19.76883
G1 X153.702 Y72.286 E19.79135
G1 X153.941 Y72.885 E19.81388
G1 X154.104 Y73.51 E19.83643
G1 X154.21 Y74.463 E19.86992
G1 X154.21 Y121.336 E21.50687
G1 X154.2 Y122.063 E21.53227
G1 X154.16 Y122.637 E21.55236
G1 X154.041 Y123.271 E21.57489
G1 X153.844 Y123.886 E21.59744
G1 X153.573 Y124.471 E21.61996
G1 X153.231 Y125.019 E21.64252
G1 X152.825 Y125.52 E21.66504
G1 X152.359 Y125.967 E21.68759
G1 X151.842 Y126.353 E21.71012
G1 X151.239 Y126.699 E21.7344
G1 X149.776 Y127.316 E21.78985
G1 X147.624 Y128.242 E21.87167
G1 X145.174 Y129.381 E21.96602
G1 X142.782 Y130.574 E22.05937
G1 X142.197 Y130.889 E22.08257
G1 X140.806 Y131.614 E22.13735
G1 X140.212 Y131.866 E22.15989
G1 X139.323 Y132.095 E22.19195
G1 X138.495 Y132.175 E22.221
G1 X137.11 Y132.174 E22.26937
G1 X134.844 Y132.135 E22.34852
G1 X132.169 Y132.131 E22.44194
G1 X130.14 Y132.175 E22.51281
G1 X126.965 Y132.216 E22.6237
G1 X125.807 Y132.25 E22.66416
G1 X123.618 Y132.251 E22.74061
G1 X121.352 Y132.212 E22.81975
G1 X118.677 Y132.208 E22.91317
G1 X116.648 Y132.252 E22.98405
G1 X114.619 Y132.251 E23.05491
G1 X113.918 Y132.241 E23.07939
G1 X112.96 Y132.139 E23.11304
G1 X112.318 Y131.967 E23.13625
G1 X111.57 Y131.715 E23.16381
G1 X108.942 Y130.87 E23.26022
G1 X106.362 Y130.119 E23.35406
G1 X103.778 Y129.447 E23.4473
G1 X101.16 Y128.844 E23.54113
G1 X98.552 Y128.321 E23.63402
G1 X95.899 Y127.866 E23.72802
G1 X93.249 Y127.488 E23.82151
G1 X90.152 Y127.13 E23.93038
G1 X89.524 Y126.985 E23.95289
G1 X88.918 Y126.763 E23.97543
G1 X88.344 Y126.468 E23.99797
G1 X87.811 Y126.104 E24.02051
G1 X87.327 Y125.677 E24.04305
G1 X86.9 Y125.194 E24.06557
G1 X86.535 Y124.661 E24.08813
G1 X86.239 Y124.088 E24.11065
G1 X86.017 Y123.482 E24.13319
G1 X85.871 Y122.853 E24.15574
G1 X85.79 Y121.878 E24.18991
G1 X85.791 Y75.096 E25.82368
G1 X85.801 Y74.431 E25.84691
G1 X85.85 Y73.787 E25.86946
G1 X85.979 Y73.155 E25.89199
G1 X86.185 Y72.543 E25.91454
G1 X86.465 Y71.962 E25.93706
G1 X86.815 Y71.42 E25.9596
G1 X87.229 Y70.925 E25.98213
M204 S1800
G1 F5100 E21.98213
;MESH:paolo_raspberry_DEF1.stl
G0 F2000 X90.335 Y74.924
G0 X91.424 Y74.924
G0 X92.05 Y75.55
M204 S1000
;TYPE:WALL-INNER
G1 F2040 E25.98213
G1 F1200 X92.05 Y79.45 E26.11833
G1 X98.412 Y79.45 E26.34051
G1 X98.23 Y79.157 E26.35256
G1 X98.005 Y78.517 E26.37625
G1 X97.958 Y77.871 E26.39887
G1 X98.079 Y77.207 E26.42244
G1 X98.362 Y76.614 E26.44539
G1 X98.804 Y76.097 E26.46914
G1 X99.33 Y75.738 E26.49138
G1 X99.805 Y75.55 E26.50922
G1 X92.05 Y75.55 E26.78005
M204 S1800
G0 F2000 X101.182 Y75.55
M204 S1000
G1 F1200 X101.653 Y75.729 E26.79765
G1 X102.199 Y76.102 E26.82074
G1 X102.634 Y76.614 E26.8442
G1 X102.917 Y77.207 E26.86715
G1 X102.991 Y77.483 E26.87713
G1 X103.038 Y78.129 E26.89975
G1 X102.991 Y78.518 E26.91343
G1 X102.766 Y79.157 E26.93709
G1 X102.584 Y79.45 E26.94914
G1 X137.412 Y79.45 E28.16544
G1 X137.23 Y79.157 E28.17749
G1 X137.005 Y78.517 E28.20118
G1 X136.958 Y77.871 E28.2238
G1 X137.079 Y77.207 E28.24737
G1 X137.362 Y76.614 E28.27032
G1 X137.804 Y76.097 E28.29407
G1 X138.33 Y75.738 E28.31631
G1 X138.805 Y75.55 E28.33415
G1 X101.182 Y75.55 E29.64807
M204 S1800
G0 F2000 X140.182 Y75.55
M204 S1000
G1 F1200 X140.653 Y75.729 E29.66566
G1 X141.199 Y76.102 E29.68876
G1 X141.634 Y76.614 E29.71222
G1 X141.917 Y77.207 E29.73517
G1 X141.991 Y77.483 E29.74514
G1 X142.038 Y78.129 E29.76776
G1 X141.991 Y78.518 E29.78145
G1 X141.766 Y79.157 E29.80511
G1 X141.584 Y79.45 E29.81715
G1 X147.95 Y79.45 E30.03947
G1 X147.95 Y75.55 E30.17567
G1 X140.182 Y75.55 E30.44696
M204 S1800
G0 F2000 X91.88 Y75.38
G0 X91.63 Y75.13
M204 S1000
G1 F1200 X91.63 Y79.87 E30.61249
G1 X99.492 Y79.87 E30.88706
G1 X99.056 Y79.563 E30.90568
G1 X98.699 Y79.136 E30.92512
G1 X98.43 Y78.552 E30.94757
G1 X98.374 Y77.922 E30.96966
G1 X98.466 Y77.369 E30.98924
G1 X98.697 Y76.867 E31.00854
G1 X98.933 Y76.555 E31.0222
G1 X99.364 Y76.2 E31.0417
G1 X99.86 Y75.968 E31.06082
G1 F976.7 X99.982 Y75.832 E31.06866
G1 F842.8 X100.584 Y75.793 E31.09866
G1 F845.6 X100.973 Y75.829 E31.11802
G1 F980.5 X101.125 Y75.965 E31.12674
G1 F1200 X101.636 Y76.199 E31.14636
G1 X102.063 Y76.555 E31.16578
G1 X102.378 Y77.005 E31.18496
G1 X102.574 Y77.534 E31.20466
G1 X102.622 Y78.078 E31.22374
G1 X102.53 Y78.631 E31.24331
G1 X102.297 Y79.136 E31.26274
G1 X101.944 Y79.561 E31.28203
G1 X101.508 Y79.87 E31.30069
G1 X138.492 Y79.87 E32.59229
G1 X138.056 Y79.563 E32.61091
G1 X137.699 Y79.136 E32.63035
G1 X137.43 Y78.552 E32.65281
G1 X137.374 Y77.922 E32.67489
G1 X137.466 Y77.369 E32.69447
G1 X137.697 Y76.867 E32.71377
G1 X137.933 Y76.555 E32.72743
G1 X138.364 Y76.2 E32.74693
G1 X138.86 Y75.968 E32.76606
G1 F976.7 X138.982 Y75.832 E32.77389
G1 F842.8 X139.584 Y75.793 E32.80389
G1 F845.6 X139.973 Y75.829 E32.82325
G1 F980.5 X140.125 Y75.965 E32.83197
G1 F1200 X140.636 Y76.199 E32.8516
G1 X141.063 Y76.555 E32.87101
G1 X141.378 Y77.005 E32.89019
G1 X141.574 Y77.534 E32.9099
G1 X141.622 Y78.078 E32.92897
G1 X141.53 Y78.631 E32.94855
G1 X141.297 Y79.136 E32.96797
G1 X140.944 Y79.561 E32.98726
G1 X140.508 Y79.87 E33.00593
G1 X148.37 Y79.87 E33.28049
G1 X148.37 Y75.13 E33.44603
G1 X140.29 Y75.13 E33.72821
G1 F980.5 X140.01 Y75.224 E33.74083
G1 F848.5 X139.496 Y75.21 E33.76623
G1 F845.6 X138.93 Y75.226 E33.79429
G1 F976.7 X138.688 Y75.13 E33.80546
G1 F1200 X101.29 Y75.13 E35.11151
G1 F980.5 X101.01 Y75.224 E35.12414
G1 F848.5 X100.496 Y75.21 E35.14953
G1 F845.6 X99.93 Y75.226 E35.17759
G1 F976.7 X99.688 Y75.13 E35.18876
G1 F1200 X91.63 Y75.13 E35.47017
M204 S1800
G0 F2000 X91.21 Y74.71
M204 S1000
;TYPE:WALL-OUTER
G1 F1200 X91.21 Y80.29 E35.66505
G1 X99.507 Y80.29 E35.9548
G1 F1063.3 X100.047 Y80.236 E35.97619
G1 F954.5 X100.953 Y80.236 E36.01597
G1 F1063.3 X101.493 Y80.29 E36.03736
G1 F1200 X138.507 Y80.29 E37.33
G1 F1063.3 X139.047 Y80.236 E37.35139
G1 F954.5 X139.953 Y80.236 E37.39117
G1 F1063.3 X140.493 Y80.29 E37.41256
G1 F1200 X148.79 Y80.29 E37.70232
G1 X148.79 Y74.71 E37.89719
G1 X91.21 Y74.71 E39.90806
M204 S1800
G0 F2000 X91.21 Y74.91
G1 F5100 E35.90806
G0 F2000 X91.88 Y75.38
G0 X99.277 Y75.62
G0 X98.479 Y76.697
G0 X99.032 Y77.121
M204 S1000
G1 F2040 E39.90806
G1 F1200 X99.309 Y76.768 E39.92373
G1 X99.661 Y76.51 E39.93897
G1 X100.082 Y76.339 E39.95484
G1 X100.522 Y76.291 E39.9703
G1 X100.965 Y76.353 E39.98592
G1 X101.333 Y76.505 E39.99983
G1 X101.688 Y76.769 E40.01528
G1 X101.964 Y77.121 E40.0309
G1 X102.157 Y77.586 E40.04848
G1 X102.205 Y78.026 E40.06394
G1 X102.142 Y78.469 E40.07956
G1 X101.963 Y78.88 E40.09522
G1 X101.688 Y79.227 E40.11068
G1 X101.38 Y79.463 E40.12423
G1 F1063.3 X100.921 Y79.71 E40.14478
G1 F978.6 X100.5 Y79.747 E40.16287
G1 X100.079 Y79.71 E40.18097
G1 F1063.3 X99.621 Y79.464 E40.20146
G1 F1200 X99.269 Y79.188 E40.21708
G1 X99.033 Y78.88 E40.23063
G1 X98.839 Y78.414 E40.24826
G1 X98.791 Y78.026 E40.26192
G1 X98.854 Y77.531 E40.27934
G1 X99.032 Y77.121 E40.29495
M204 S1800
G0 F2000 X99.155 Y76.964
G1 F5100 E36.29495
G0 F2000 X98.6 Y76.539
G0 X99.318 Y75.962
G0 X100.494 Y75.643
G0 X137.94 Y75.746
G0 X137.211 Y77.265
G0 X137.854 Y77.531
M204 S1000
G1 F2040 E40.29495
G1 F1200 X138.032 Y77.121 E40.31056
G1 X138.309 Y76.768 E40.32623
G1 X138.661 Y76.51 E40.34147
G1 X139.082 Y76.339 E40.35734
G1 X139.522 Y76.291 E40.3728
G1 X139.965 Y76.353 E40.38842
G1 X140.333 Y76.505 E40.40233
G1 X140.688 Y76.769 E40.41778
G1 X140.964 Y77.121 E40.4334
G1 X141.157 Y77.586 E40.45098
G1 X141.205 Y78.026 E40.46644
G1 X141.142 Y78.469 E40.48206
G1 X140.963 Y78.88 E40.49772
G1 X140.688 Y79.227 E40.51318
G1 X140.38 Y79.463 E40.52673
G1 F1063.3 X139.921 Y79.71 E40.54728
G1 F978.6 X139.5 Y79.747 E40.56537
G1 X139.079 Y79.71 E40.58347
G1 F1063.3 X138.621 Y79.464 E40.60396
G1 F1200 X138.269 Y79.188 E40.61958
G1 X138.033 Y78.88 E40.63314
G1 X137.839 Y78.414 E40.65076
G1 X137.791 Y78.026 E40.66442
G1 X137.854 Y77.531 E40.68184
M204 S1800
G0 F2000 X137.933 Y77.348
G0 X137.287 Y77.08
G0 X136.847 Y76.812
M204 S1000
;TYPE:SKIN
G1 F1200 X136.718 Y77.073 E40.69201
G1 X136.576 Y77.827 E40.71881
G1 X136.626 Y78.551 E40.74415
G1 X136.794 Y79.066 E40.76307
G1 X103.198 Y79.066 E41.93635
G1 X103.366 Y78.551 E41.95526
G1 X103.414 Y77.859 E41.97949
G1 X103.365 Y77.437 E41.99433
G1 X103.111 Y76.687 E42.02198
G1 X102.707 Y76.082 E42.04739
G1 X102.545 Y75.93 E42.05514
G1 X137.449 Y75.93 E43.2741
G1 X137.06 Y76.381 E43.2949
G1 X136.847 Y76.812 E43.31169
M204 S1800
G0 F2000 X136.887 Y76.272
M204 S1000
G1 F1200 X136.756 Y76.141 E43.31816
M204 S1800
G0 F2000 X136.684 Y76.663
M204 S1000
G1 F1200 X136.162 Y76.141 E43.34394
M204 S1800
G0 F2000 X135.568 Y76.141
M204 S1000
G1 F1200 X136.504 Y77.077 E43.39017
M204 S1800
G0 F2000 X136.41 Y77.577
M204 S1000
G1 F1200 X134.974 Y76.141 E43.46109
M204 S1800
G0 F2000 X134.38 Y76.141
M204 S1000
G1 F1200 X136.388 Y78.149 E43.56026
M204 S1800
G0 F2000 X136.501 Y78.856
M204 S1000
G1 F1200 X133.786 Y76.141 E43.69435
M204 S1800
G0 F2000 X133.192 Y76.141
M204 S1000
G1 F1200 X135.907 Y78.856 E43.82845
M204 S1800
G0 F2000 X135.313 Y78.856
M204 S1000
G1 F1200 X132.598 Y76.141 E43.96254
M204 S1800
G0 F2000 X132.004 Y76.141
M204 S1000
G1 F1200 X134.719 Y78.856 E44.09663
M204 S1800
G0 F2000 X134.125 Y78.856
M204 S1000
G1 F1200 X131.41 Y76.141 E44.23072
M204 S1800
G0 F2000 X130.816 Y76.141
M204 S1000
G1 F1200 X133.531 Y78.856 E44.36481
M204 S1800
G0 F2000 X132.937 Y78.856
M204 S1000
G1 F1200 X130.222 Y76.141 E44.4989
M204 S1800
G0 F2000 X129.628 Y76.141
M204 S1000
G1 F1200 X132.343 Y78.856 E44.63299
M204 S1800
G0 F2000 X131.75 Y78.856
M204 S1000
G1 F1200 X129.034 Y76.141 E44.7671
M204 S1800
G0 F2000 X128.44 Y76.141
M204 S1000
G1 F1200 X131.156 Y78.856 E44.90122
M204 S1800
G0 F2000 X130.562 Y78.856
M204 S1000
G1 F1200 X127.846 Y76.141 E45.03533
M204 S1800
